X: 32982
T: Pretty Girl, The
R: slide
M: 12/8
K: Dmajor
dc{B/c/}B|{A/B/}A2F ABd {e/f/}e2d BdB|AB{A/B/}A GFG {A/B/}A3 ABd|
e{f/e/}fe dBd {e/f/}e2d B2e|fg{f/g/}f ef{e/f/}e d3:|
d2e|{f/a/}f2d dcd {e/f/}edB ABd|{f/a}f2d d2f a3 b{c'/b/}ag|
{f/a/}f2d dcd {e/f/}edB ABd|{f/a}fef {g/a/}gec d3:|

